logos/shopify.svg

<?xml version="1.0" encoding="UTF-8" standalone="no"?>
<svg width="256px" height="292px" viewBox="0 0 256 292" version="1.1" xmlns="http://www.w3.org/2000/svg" xmlns:xlink="http://www.w3.org/1999/xlink" preserveAspectRatio="xMidYMid">
	<g>
		<path d="M223.773626,57.3402078 C223.572932,55.8793405 222.29409,55.0718963 221.236945,54.9832175 C220.182133,54.8945386 197.853734,53.2399781 197.853734,53.2399781 C197.853734,53.2399781 182.346604,37.8448639 180.64537,36.1412966 C178.941803,34.4377293 175.616346,34.9558004 174.325836,35.336186 C174.134476,35.3921937 170.937371,36.3793293 165.646977,38.0152206 C160.466266,23.1101737 151.325344,9.41162582 135.241802,9.41162582 C134.798408,9.41162582 134.341011,9.43029505 133.883615,9.45596525 C129.309654,3.40713457 123.643542,0.779440373 118.74987,0.779440373 C81.285392,0.779440373 63.3862673,47.6135387 57.7738299,71.414474 C43.2164974,75.9254268 32.8737437,79.1318671 31.5528956,79.5472575 C23.4271131,82.0956074 23.1704111,82.3523094 22.1039313,90.0090275 C21.2988208,95.8058236 0.0369009009,260.235071 0.0369009009,260.235071 L165.714653,291.277334 L255.485648,271.856667 C255.485648,271.856667 223.971987,58.8010751 223.773626,57.3402078 L223.773626,57.3402078 Z M156.48972,40.8482763 C152.328815,42.1364532 147.598499,43.5996542 142.471461,45.1865388 C142.476129,44.1994032 142.480796,43.2262696 142.480796,42.1644571 C142.480796,32.8998514 141.194953,25.4414939 139.132003,19.5280151 C147.418807,20.5688247 152.937899,29.9967861 156.48972,40.8482763 L156.48972,40.8482763 Z M128.852258,21.3646006 C131.155574,27.1380602 132.65378,35.4225312 132.65378,46.6030666 C132.65378,47.1748118 132.649112,47.6975503 132.644445,48.2272897 C123.52686,51.0510108 113.620499,54.1174319 103.690802,57.1931876 C109.265901,35.6768995 119.716003,25.2851391 128.852258,21.3646006 L128.852258,21.3646006 Z M117.720729,10.8281537 C119.337951,10.8281537 120.966841,11.3765623 122.525722,12.4500431 C110.519073,18.099819 97.6489725,32.3304399 92.2138928,60.7473424 C84.2701352,63.2070135 76.506069,65.6106769 69.3277499,67.834649 C75.6939575,46.1596724 90.8113669,10.8281537 117.720729,10.8281537 L117.720729,10.8281537 Z" fill="#95BF46"></path>
		<path d="M221.236945,54.9832175 C220.182133,54.8945386 197.853734,53.2399781 197.853734,53.2399781 C197.853734,53.2399781 182.346604,37.8448639 180.64537,36.1412966 C180.008283,35.5065427 179.149498,35.1821649 178.251042,35.0421456 L165.723988,291.275001 L255.485648,271.856667 C255.485648,271.856667 223.971987,58.8010751 223.773626,57.3402078 C223.572932,55.8793405 222.29409,55.0718963 221.236945,54.9832175" fill="#5E8E3E"></path>
		<path d="M135.241802,104.585029 L124.173282,137.510551 C124.173282,137.510551 114.474617,132.334507 102.586984,132.334507 C85.1592573,132.334507 84.2818035,143.272342 84.2818035,146.028387 C84.2818035,161.066452 123.48252,166.828244 123.48252,202.052414 C123.48252,229.764553 105.90544,247.610004 82.2048516,247.610004 C53.7646126,247.610004 39.2212821,229.90924 39.2212821,229.90924 L46.8359944,204.750118 C46.8359944,204.750118 61.7853808,217.585214 74.4011133,217.585214 C82.6435785,217.585214 85.9970391,211.095323 85.9970391,206.353338 C85.9970391,186.736644 53.8369559,185.861524 53.8369559,153.629098 C53.8369559,126.500372 73.3089633,100.246767 112.614694,100.246767 C127.760108,100.246767 135.241802,104.585029 135.241802,104.585029" fill="#FFFFFF"></path>
	</g>
</svg>

<svg width="256" height="292" xmlns="http://www.w3.org/2000/svg" preserveAspectRatio="xMidYMid">
	<path d="M223.774 57.34c-.201-1.46-1.48-2.268-2.537-2.357-1.055-.088-23.383-1.743-23.383-1.743s-15.507-15.395-17.209-17.099c-1.703-1.703-5.029-1.185-6.32-.805-.19.056-3.388 1.043-8.678 2.68-5.18-14.906-14.322-28.604-30.405-28.604-.444 0-.901.018-1.358.044C129.31 3.407 123.644.779 118.75.779c-37.465 0-55.364 46.835-60.976 70.635-14.558 4.511-24.9 7.718-26.221 8.133-8.126 2.549-8.383 2.805-9.45 10.462C21.3 95.806.038 260.235.038 260.235l165.678 31.042 89.77-19.42S223.973 58.8 223.775 57.34ZM156.49 40.848l-14.019 4.339c.005-.988.01-1.96.01-3.023 0-9.264-1.286-16.723-3.349-22.636 8.287 1.04 13.806 10.469 17.358 21.32Zm-27.638-19.483c2.304 5.773 3.802 14.058 3.802 25.238 0 .572-.005 1.095-.01 1.624-9.117 2.824-19.024 5.89-28.953 8.966 5.575-21.516 16.025-31.908 25.161-35.828Zm-11.131-10.537c1.617 0 3.246.549 4.805 1.622-12.007 5.65-24.877 19.88-30.312 48.297l-22.886 7.088C75.694 46.16 90.81 10.828 117.72 10.828Z" fill="#95BF46"/>
	<path d="M221.237 54.983c-1.055-.088-23.383-1.743-23.383-1.743s-15.507-15.395-17.209-17.099c-.637-.634-1.496-.959-2.394-1.099l-12.527 256.233 89.762-19.418S223.972 58.8 223.774 57.34c-.201-1.46-1.48-2.268-2.537-2.357" fill="#5E8E3E"/>
	<path d="m135.242 104.585-11.069 32.926s-9.698-5.176-21.586-5.176c-17.428 0-18.305 10.937-18.305 13.693 0 15.038 39.2 20.8 39.2 56.024 0 27.713-17.577 45.558-41.277 45.558-28.44 0-42.984-17.7-42.984-17.7l7.615-25.16s14.95 12.835 27.565 12.835c8.243 0 11.596-6.49 11.596-11.232 0-19.616-32.16-20.491-32.16-52.724 0-27.129 19.472-53.382 58.778-53.382 15.145 0 22.627 4.338 22.627 4.338" fill="#FFF"/>
</svg>
